X:1
T:Title
%%score 1 2 3
L:1/8
M:4/2
K:C
V:1 treble-8 nm="Part_1"
V:2 bass nm="Part_2"
V:3 bass nm="Part_3"
V:1
 d8 d8 | f4 f3 g e4 d4 | d8 d8 | z16 | z4 d4 B2 e4 c2 | A2 B2 A4 G8 | z16 | z2 g4 e2 a4 ^f2 g2- | %8
 g2 g2 ^f4 g8 | z16 | z16 | z16 | z4 d4 B2 e4 c2 | d4 B2 c4 BA B4 | c2 g4 e2 a4 ^f2 g2- | %15
 g2 g2 ^f4 g8 | z16 | z8 z4 c4 | d4 e2 de f4 e4 | z8 z4 c4 | d4 e2 de f4 e4 | z4 g6 fe d4 | %22
 z2 c2 d4 e2 dc d4 | B4 d2 e2 d8 | c8 G8 | c8 B8 | z8 z4 d4- | d2 B2 d2 B2 e8 | d8 z8 | %29
 z4 d4 BcdB e3 f | e4 d4 z8 | z2 d2 BcdB c6 A2 | B4 c4 d8 | z16 | z8 z4 d4- | %35
 d2 e2 c2 Bc A4 G2 c2- | c2 B2 A4 G4 d4 | e2 c4 cc f4 e2 e2 | d2 g4 ^f2 g4 g2 d2 | %39
 e2 de c2 A2 B4 G2 B2 | c2 Bc A2 d2 G4 B4 | d2 Be d3 d B8 | z4 z2 d2 g2 fg e3 e | %43
 d4 z4 A2 c2 e2 de | B2 c4 B2 c4 e4 | d4 d2 e2 ^f2 g4 f2 | g4 d4 e4 d2 g2 | (e8 (3:2:2d8) d4 | %48
 d16 |] %49
V:2
 z16 | z16 | z8 z4 G,4 | E,2 A,4 F,2 D,2 E,2 D,4 | G,,8 z8 | z8 z4 G,4 | E,2 A,4 F,2 G,2 A,2 G,4 | %7
 C,4 C,4 A,,2 D,4 B,,2 | C,2 B,,2 D,4 G,,8 | G,8 E,8 | F,4 F,3 G, E,4 C,4 | G,6 F,E, D,8 | %12
 G,,8 G,2 E,2 A,4 | ^F,4 G,2 A,2 G,8 | C,4 C,4 A,,2 D,4 B,,2 | C,2 E,2 D,4 G,,8 | %16
 z4 G,4 D,4 E,2 D,E, | F,4 E,2 G,4 F,G, C,4 | z8 z4 C,4 | D,4 E,2 D,E, F,4 C,4 | %20
 G,6 F,E, D,4 A,4- | A,2 G,F, E,4 z4 G,,4 | A,,4 B,,2 A,,B,, C,4 G,,4 | G,6 E,2 G,8 | C,8 C,8 | %25
 A,,8 E,,4 E,4- | E,2 C,2 E,2 B,,2 D,8 | G,,8 z8 | z4 D,4 E,F,G,E, F,3 G, | E,4 D,4 z8 | %30
 z4 D,4 B,,C,D,B,, C,3 G,, | D,4 G,,2 G,2 E,F,G,E, F,3 G, | E,8 D,4 D,4- | %33
 D,2 E,2 C,2 B,,C, A,,4 G,,2 G,2- | G,2 F,2 E,4 D,8 | z16 | z8 z4 G,4- | %37
 G,2 A,2 F,2 E,F, D,4 C,2 C2- | C2 B,2 A,4 G,4 G,,2 B,,2 | C,2 B,,C, A,,2 D,2 G,,4 G,4 | %40
 F,6 E,D, C,D,E,C, G,2 F,E, | D,2 E,C, D,3 D, G,,4 G,2 E,2 | F,2 E,F, D,2 G,2 C,4 C4 | %43
 _B,6 A,G, F,G,A,F, C2 B,A, | G,2 A,F, G,3 G, C,4 C,4 | G,6 F,E, D,2 E,C, D,3 D, | %46
 G,,4 G,4 C,4 B,,2 B,,2 | (C,8 (3:2:2D,8) D,4 | G,,16 |] %49
V:3
 G,8 G,8 | D,4 D,4 A,,4 B,,4 | D,8 G,,4 G,4 | E,2 A,4 F,2 D,2 E,2 D,4 | G,,4 G,6 E,2 A,4 | %5
 F,2 G,2 D,4 G,,4 G,4 | E,2 A,4 F,2 G,2 A,2 G,4 | C,4 C,4 A,,2 D,4 B,,2 | C,2 G,,2 D,4 G,,8 | %9
 G,,8 G,,8 | D,4 D,4 A,,4 A,,4 | G,6 F,E, D,8 | G,,8 G,2 E,2 A,4 | ^F,4 G,2 A,2 G,8 | %14
 C,4 C,4 A,,2 D,4 B,,2 | C,2 E,2 D,4 G,,8 | z4 G,4 D,4 C,4 | D,4 C,2 G,4 F,G, C,4 | %18
 B,,4 C,4 D,4 C,4 | D,4 C,4 F,4 C,4 | G,6 F,E, D,4 A,4- | A,2 G,F, E,4 G,4 G,,4 | %22
 A,,4 G,,4 C,4 G,,4 | G,6 E,2 G,8 | C,8 C,8 | A,,8 E,,4 E,4- | E,2 C,2 E,2 B,,2 D,8 | G,,8 A,8 | %28
 D,4 D,4 C,4 F,3 G, | E,4 D,4 G,4 C,3 D, | A,,4 D,4 G,,4 C,3 G,, | D,4 G,,4 C,4 F,3 G, | %32
 E,8 D,4 D,4- | D,2 E,2 C,2 B,,C, A,,4 G,,4 | A,,8 D,4 B,,4- | B,,2 C,2 A,,2 G,,A,, F,,4 C,4 | %36
 D,4 D,4 G,,4 G,4- | G,2 A,2 F,2 E,F, D,4 C,4 | G,4 D,4 G,4 G,,4 | C,2 B,,C, A,,2 D,2 G,,4 G,4 | %40
 F,6 E,D, C,4 G,,4 | D,4 D,4 G,,4 G,2 E,2 | F,2 E,F, D,2 G,2 C,4 C4 | _B,6 A,G, F,4 C,4 | %44
 G,8 C,4 C,4 | G,,8 D,8 | G,,4 G,4 C,4 B,,2 B,,2 | C,8 D,8 | G,,16 |] %49

